X: 50
M: 3/4
L: 1/8
K: D
V: 1
|:\
efg2B2 | cde2A2 | d2e2{d}c2 | d6 :|\
|:\
{e2}d4c2 | B2A2B2 | c2dcBc | A6 |\
EDEGFA | GFGBA=c | B2e4 | {d}Tc3de2 |\
|:\
a2a2a2 | d6 | edefge | f2efd2 |\
gfgafg | edefde | cd(Td3c/d/) | e6 :|\
|:\
dcdecd | edefge | f2e2d2 | a6- |\
agfedc | Bcdefd | ef/g/f2Te2 | d6 :|
V: 2 clef=bass middle=d
|:\
d6 | c6 | B2G2E2 | A2e2a2 |
g2g2g2 g4f2 | b2g2a2 | defgfe :||: d4 c2 |
a2d2e2 | A2c2e2 | a6 | edegfa | gfefge |
"[p.2]"\
a2A2g2 | f2d2d'2 | c'4d'2 | g2a2A2 | defgfe :||:
d2c2A2 | B2b2f2 | g2e2a2 | d'2a2d2 | b4a2 |
g4f2 | e2f2d2 | A2agfe :||: f4d2 | g2d2G2 |
^g4e2 | a2e2A2 | f4z2 | c4A2 | d2c2B2 |

